X: 36130
T: Scollay's
R: reel
M: 4/4
K: Dminor
|:"D"D2DEF2G2|ABAG FEFG|A2D2D2F2|EFGEC2FE|
"D" D2DEF2G2|ABAG FEFG|A2AB AGFE|"D"F2D2D4:|
|:"F"defdA2A2|F2F2A4|"G"B2AGF2F2|EFGEC2E2|
D2DEF2G2|"G"AGAcd2c2|"C" A2AB AGFE|"D" F2D2D4:|

